assets/icons/money-bag.svg

<?xml version="1.0" encoding="UTF-8"?>
<svg width="32px" height="32px" viewBox="0 0 32 32" version="1.1" xmlns="http://www.w3.org/2000/svg" xmlns:xlink="http://www.w3.org/1999/xlink" >
    <!-- Generator: Sketch 56.1 (81669) - https://sketch.com -->
    <title>icons/support/money-bag</title>
    <desc>Created with Sketch.</desc>
    <defs>
        <path d="M22.6934686,12.4584976 C24.9957012,14.7184757 26.5,18.0046613 26.5,21.35 C26.5,26.7483719 22.6547037,29 16,29 C9.34529628,29 5.5,26.7483719 5.5,21.35 C5.5,17.76224 7.23021749,14.2425167 9.81932975,11.9837214 C9.35328582,11.8986804 9,11.4905974 9,11 C9,10.4477153 9.44771525,10 10,10 L10.9789862,10 L9.64387993,6.15622627 C9.28145617,5.11280747 9.83351173,3.97314689 10.8769305,3.61072313 C11.0879539,3.53742572 11.3097661,3.5 11.5331568,3.5 L20.3855784,3.5 C21.4901479,3.5 22.3855784,4.3954305 22.3855784,5.5 C22.3855784,5.71426243 22.3511486,5.92713285 22.2836054,6.13047079 L21.2034168,9.38236964 L22.7928932,7.79289322 C23.1834175,7.40236893 23.8165825,7.40236893 24.2071068,7.79289322 C24.5976311,8.18341751 24.5976311,8.81658249 24.2071068,9.20710678 L22.9450146,10.469199 L24.4461161,10.7694193 C24.9876759,10.8777313 25.3388926,11.4045564 25.2305807,11.9461161 C25.1222687,12.4876759 24.5954436,12.8388926 24.0538839,12.7305807 L22.6934686,12.4584976 Z M13.5226765,12 C10.1590031,13.36365 7.5,17.3158614 7.5,21.35 C7.5,25.3578 10.3045243,27 16,27 C21.6954757,27 24.5,25.3578 24.5,21.35 C24.5,17.3158614 21.8409969,13.36365 18.4773235,12 L13.5226765,12 Z M11.5331568,5.5 L12.9225271,9.5 L19.0568918,9.5 L20.3855784,5.5 L11.5331568,5.5 Z M17.1148433,17.7342605 C16.9912506,17.639074 16.8049049,17.5555047 16.5623112,17.4985426 L16.5623112,19.4802215 C16.5680508,19.4817205 16.5730251,19.4828448 16.578382,19.4843438 C16.970588,19.5937708 17.3746558,19.7298051 17.735868,19.9898817 C17.9405804,20.1382828 18.1288392,20.3327781 18.2642938,20.5756163 C18.4200282,20.8525566 18.5003826,21.1842105 18.4996174,21.5469687 C18.4996174,21.8954863 18.4246199,22.22002 18.2723292,22.4965856 C18.1208038,22.7739007 17.8954288,22.9938791 17.6409733,23.1501499 C17.314964,23.348018 16.9476296,23.4503248 16.5623112,23.5042888 L16.5623112,23.9348767 C16.5623112,24.2470436 16.3047945,24.5 15.9875859,24.5 C15.6699947,24.5 15.4128607,24.2470436 15.4128607,23.9348767 L15.4128607,23.5211526 C14.9334128,23.4536975 14.5105956,23.2809377 14.18076,23.0062458 C13.7453157,22.6479847 13.496217,22.1113424 13.5,21.5462192 C13.5,21.2554131 13.7399587,21.0189457 14.0365047,21.0189457 C14.3322854,21.0189457 14.5722007,21.2554131 14.5722007,21.5462192 C14.5760271,21.8269071 14.6743655,22.0303964 14.8741036,22.2009077 C14.9988442,22.305463 15.1813635,22.3909061 15.412478,22.4441206 L15.412478,20.2799384 C15.0317513,20.1795053 14.6429891,20.0622085 14.2875165,19.8347352 C14.0828041,19.7020736 13.8895709,19.5266905 13.7479941,19.2980929 C13.5842242,19.0380163 13.4985129,18.7179797 13.5,18.3743338 C13.5,18.0430546 13.5884333,17.6817955 13.8019464,17.3467688 C14.0135463,17.0124917 14.3586875,16.7145653 14.820534,16.5436792 C15.0007574,16.4758494 15.1993476,16.4293804 15.4128607,16.4001499 L15.4128607,16.0651233 C15.4128607,15.7529564 15.6699947,15.5 15.9875859,15.5 C16.3047945,15.5 16.5623112,15.7529564 16.5623112,16.0651233 L16.5623112,16.4222602 C16.8638315,16.4702282 17.1408628,16.5481762 17.3857524,16.665473 C17.80283,16.8637159 18.1326656,17.1758827 18.3170981,17.5585027 C18.4406908,17.8125833 18.5,18.0921469 18.5,18.373959 C18.5,18.6655147 18.2593195,18.9016073 17.9635388,18.9016073 C17.6669928,18.9016073 17.4270775,18.6655147 17.4270775,18.373959 C17.4270775,18.2334277 17.3995274,18.1161309 17.3494016,18.0138241 C17.2988931,17.9111426 17.2265742,17.8200783 17.1148433,17.7342605 Z M16.9214254,20.6594496 C16.8019035,20.5999595 16.6562638,20.5481586 16.5,20.5 L16.5,22.5 C16.6252767,22.476123 16.7430279,22.4490085 16.8426295,22.4138001 C17.1285967,22.3114124 17.2870739,22.1875759 17.3862328,22.0220558 C17.4521912,21.9091461 17.4991147,21.7602185 17.5,21.5376366 C17.4982293,21.2664913 17.4358123,21.111898 17.3486056,20.9880615 C17.2605135,20.8654391 17.1263834,20.7594091 16.9214254,20.6594496 Z M15.0692168,18.8829974 C15.1921676,18.9260517 15.3406193,18.9641762 15.5,19 L15.5,17.5 C15.4084699,17.5147897 15.3224044,17.5315513 15.2490893,17.5519281 C15.0478142,17.6081288 14.9071038,17.6797765 14.7996357,17.7586547 C14.5878871,17.9141104 14.5,18.121823 14.5,18.2927257 C14.503643,18.4797327 14.5582878,18.5707713 14.6370674,18.6516214 C14.7181239,18.7314855 14.8542805,18.8093777 15.0692168,18.8829974 Z" id="path-1"></path>
    </defs>
    <g id="icons/support/money-bag" stroke="none" stroke-width="1" fill="none" fill-rule="evenodd">
        <rect fill="#FF0000" opacity="0" x="0" y="0" width="32" height="32"></rect>
        <mask id="mask-2" fill="white">
            <use xlink:href="#path-1"></use>
        </mask>
        <use id="Combined-Shape" fill="#979797" fill-rule="nonzero" xlink:href="#path-1"></use>
        <g id="colors/moon/900" mask="url(#mask-2)" fill="#32383C" fill-rule="nonzero">
            <rect id="Rectangle-2-Copy-6" x="0" y="0" width="32" height="32"></rect>
        </g>
    </g>
</svg>

<svg xmlns="http://www.w3.org/2000/svg" viewBox="0 0 32 32"><defs><style>.a{fill:red;fill-opacity:0;}.b{fill:#32383c;}</style></defs><title>money-bag_il</title><rect class="a" width="32" height="32"/><path class="b" d="M20.39,3.5a2,2,0,0,1,2,2,1.94,1.94,0,0,1-.11.63L21.2,9.38l1.59-1.59a1,1,0,0,1,1.32-.08l.1.08a1,1,0,0,1,.08,1.32l-.08.1-1.27,1.26,1.51.3a1,1,0,0,1,.8,1.06l0,.12a1,1,0,0,1-1.06.8l-.12,0-1.36-.27a12.74,12.74,0,0,1,3.81,8.89C26.5,26.75,22.65,29,16,29S5.5,26.75,5.5,21.35A12.74,12.74,0,0,1,9.82,12a1,1,0,0,1,.06-2H11L9.64,6.16a2,2,0,0,1,1.24-2.55,2.06,2.06,0,0,1,.65-.11ZM18.48,12h-5a10.45,10.45,0,0,0-6,9.35c0,4,2.8,5.65,8.5,5.65s8.5-1.64,8.5-5.65A10.45,10.45,0,0,0,18.48,12ZM16,15.5a.57.57,0,0,1,.57.57h0v.35a3.09,3.09,0,0,1,.83.25,2,2,0,0,1,.93.89,1.88,1.88,0,0,1,.18.81.54.54,0,0,1-1.07,0,.83.83,0,0,0-.08-.36.77.77,0,0,0-.24-.28,1.59,1.59,0,0,0-.55-.23h0v2h0a3.71,3.71,0,0,1,1.16.51,1.76,1.76,0,0,1,.52.59,1.89,1.89,0,0,1,.24,1,2,2,0,0,1-.23.95,1.79,1.79,0,0,1-.63.65,2.7,2.7,0,0,1-1.08.35h0v.43a.58.58,0,0,1-1.15,0h0v-.41A2.48,2.48,0,0,1,14.18,23a1.91,1.91,0,0,1-.68-1.46.54.54,0,0,1,1.07,0,.82.82,0,0,0,.3.65,1.23,1.23,0,0,0,.54.24h0V20.28a3.71,3.71,0,0,1-1.12-.45,1.61,1.61,0,0,1-.54-.53,1.68,1.68,0,0,1-.25-.93,1.9,1.9,0,0,1,.3-1,2,2,0,0,1,1-.81,3.4,3.4,0,0,1,.59-.14h0v-.33A.57.57,0,0,1,16,15.5Zm.51,5v2a1.53,1.53,0,0,0,.34-.09.92.92,0,0,0,.55-.39,1,1,0,0,0,.11-.48.86.86,0,0,0-.15-.55,1.1,1.1,0,0,0-.43-.33,2.85,2.85,0,0,0-.42-.16Zm-1-3-.25.05a1.46,1.46,0,0,0-.45.21.67.67,0,0,0-.3.53.45.45,0,0,0,.14.36,1,1,0,0,0,.43.23,3.25,3.25,0,0,0,.43.12h0Zm4.89-12H11.53l1.39,4h6.14Z"/></svg>
